; generated by Slic3r 1.1.7 on 2014-08-14 at 08:53:01

; perimeters extrusion width = 0.35mm
; infill extrusion width = 0.98mm
; solid infill extrusion width = 0.59mm
; top infill extrusion width = 0.59mm

G21 ; set units to millimeters
M107
M190 S65 ; wait for bed temperature to be reached
M104 S220 ; set temperature
G28 ; home all axes
G1 Z5 F5000 ; lift nozzle

M109 S220 ; wait for temperature to be reached
G90 ; use absolute coordinates
G92 E0
M82 ; use absolute distances for extrusion
G1 F1800.000 E-1.00000
G92 E0
G1 Z0.350 F7800.000
G1 X79.749 Y100.194 F7800.000
G1 E1.00000 F1800.000
G1 X81.346 Y98.972 E1.18290 F1080.000
G1 X82.435 Y98.232 E1.30260
G1 X83.018 Y97.852 E1.36583
G1 X84.756 Y96.839 E1.54877
G1 X86.554 Y95.937 E1.73168
G1 X87.762 Y95.415 E1.85140
G1 X88.406 Y95.150 E1.91461
G1 X90.303 Y94.481 E2.09753
G1 X92.238 Y93.933 E2.28044
G1 X94.204 Y93.507 E2.46339
G1 X96.193 Y93.205 E2.64629
G1 X98.197 Y93.028 E2.82923
G1 X100.208 Y92.978 E3.01214
G1 X102.218 Y93.055 E3.19508
G1 X104.220 Y93.257 E3.37798 F1080.000
G1 X105.520 Y93.463 E3.49768
G1 X106.205 Y93.585 E3.56093
G1 X108.165 Y94.036 E3.74384
G1 X110.093 Y94.610 E3.92676
G1 X111.981 Y95.304 E4.10968
G1 X113.822 Y96.115 E4.29260
G1 X115.609 Y97.040 E4.47553
G1 X117.334 Y98.075 E4.65846
G1 X118.423 Y98.815 E4.77816
G1 X118.990 Y99.216 E4.84136
G1 X120.572 Y100.460 E5.02430
G1 X122.072 Y101.800 E5.20722
G1 X123.485 Y103.231 E5.39015
G1 X124.806 Y104.749 E5.57307
G1 X126.028 Y106.346 E5.75598
G1 X127.148 Y108.018 E5.93890
G1 X128.161 Y109.756 E6.12183
G1 X128.759 Y110.929 E6.24154
G1 X129.063 Y111.554 E6.30477
G1 X129.850 Y113.406 E6.48769
G1 X130.519 Y115.303 E6.67059
G1 X131.067 Y117.238 E6.85352
G1 X131.355 Y118.523 E6.97323
G1 X131.493 Y119.204 E7.03646
G1 X131.795 Y121.193 E7.21936
G1 X131.972 Y123.197 E7.40231
G1 X132.022 Y125.208 E7.58521
G1 X132.013 Y125.487 E7.61061
G1 X131.945 Y127.218 E7.76816
G1 X131.743 Y129.220 E7.95106
G1 X131.415 Y131.205 E8.13400
G1 X130.964 Y133.165 E8.31692
G1 X130.390 Y135.093 E8.49983
G1 X129.696 Y136.981 E8.68275
G1 X128.885 Y138.822 E8.86568
G1 X128.759 Y139.071 E8.89107
G1 X127.960 Y140.609 E9.04860
G1 X126.925 Y142.334 E9.23152
G1 X125.784 Y143.990 E9.41443
G1 X124.540 Y145.572 E9.59737
G1 X123.200 Y147.072 E9.78028
G1 X121.769 Y148.485 E9.96321
G1 X120.251 Y149.806 E10.14614
G1 X120.030 Y149.977 E10.17154
G1 X118.654 Y151.028 E10.32904
G1 X116.982 Y152.148 E10.51197
G1 X115.244 Y153.161 E10.69490
G1 X113.446 Y154.063 E10.87782
G1 X111.594 Y154.850 E11.06075
G1 X109.697 Y155.519 E11.24365
G1 X107.762 Y156.067 E11.42657
G1 X107.489 Y156.128 E11.45197
G1 X105.796 Y156.493 E11.60951
G1 X103.807 Y156.795 E11.79241
G1 X101.803 Y156.972 E11.97536
G1 X101.524 Y156.980 E12.00075
G1 X99.792 Y157.022 E12.15827
G1 X97.782 Y156.945 E12.34121
G1 X95.780 Y156.743 E12.52411
G1 X93.795 Y156.415 E12.70705
G1 X91.835 Y155.964 E12.88997
G1 X89.907 Y155.390 E13.07288
G1 X88.019 Y154.696 E13.25579
G1 X86.178 Y153.885 E13.43873
G1 X85.929 Y153.759 E13.46412
G1 X84.391 Y152.961 E13.62165
G1 X82.666 Y151.925 E13.80458
G1 X81.010 Y150.784 E13.98748
G1 X79.428 Y149.540 E14.17041
G1 X79.219 Y149.356 E14.19581
G1 X77.928 Y148.200 E14.35334
G1 X76.515 Y146.769 E14.53626
G1 X75.194 Y145.251 E14.71919
G1 X73.972 Y143.654 E14.90210
G1 X73.815 Y143.423 E14.92749
G1 X72.852 Y141.982 E15.08502
G1 X71.839 Y140.244 E15.26795
G1 X70.937 Y138.446 E15.45087
G1 X70.150 Y136.594 E15.63380
G1 X69.481 Y134.697 E15.81670
G1 X68.933 Y132.762 E15.99962
G1 X68.507 Y130.796 E16.18257
G1 X68.463 Y130.520 E16.20796
G1 X68.205 Y128.807 E16.36547
G1 X68.028 Y126.803 E16.54841
G1 X67.978 Y124.792 E16.73132
G1 X68.055 Y122.782 E16.91426
G1 X68.179 Y121.471 E17.03397
G1 X68.257 Y120.780 E17.09717
G1 X68.585 Y118.795 E17.28011
G1 X69.036 Y116.835 E17.46303
G1 X69.403 Y115.571 E17.58274
G1 X69.610 Y114.907 E17.64595
G1 X70.304 Y113.019 E17.82887
G1 X71.115 Y111.178 E18.01180
G1 X72.040 Y109.391 E18.19472
G1 X72.710 Y108.258 E18.31443
G1 X73.075 Y107.666 E18.37766
G1 X74.216 Y106.010 E18.56055
G1 X75.460 Y104.428 E18.74349
G1 X76.800 Y102.928 E18.92641
G1 X78.231 Y101.515 E19.10934
G1 X79.709 Y100.228 E19.28750
G1 F1800.000 E18.28750
G92 E0
G1 X88.456 Y113.860 F7800.000
G1 E1.00000 F1800.000
G1 X88.150 Y114.082 E1.03436 F540.000
G1 X87.817 Y114.265 E1.06893
G1 X87.464 Y114.405 E1.10345
G1 X87.097 Y114.499 E1.13786
G1 X86.719 Y114.547 E1.17254
G1 X86.340 Y114.547 E1.20698
G1 X85.962 Y114.499 E1.24160
G1 X85.595 Y114.405 E1.27609
G1 X85.243 Y114.265 E1.31048
G1 X85.026 Y114.151 E1.33278
G1 X84.753 Y113.975 E1.36236
G1 X84.460 Y113.733 E1.39694
G1 X84.200 Y113.457 E1.43138
G1 X83.977 Y113.149 E1.46593
G1 X83.795 Y112.817 E1.50037
G1 X83.654 Y112.464 E1.53497
G1 X83.560 Y112.097 E1.56939
G1 X83.525 Y111.855 E1.59166
G1 X83.507 Y111.530 E1.62126
G1 X83.530 Y111.151 E1.65578
G1 X83.602 Y110.778 E1.69029
G1 X83.719 Y110.416 E1.72489
G1 X83.881 Y110.073 E1.75940
G1 X84.084 Y109.752 E1.79393
G1 X84.325 Y109.461 E1.82831
G1 X84.603 Y109.200 E1.86293
G1 X84.909 Y108.978 E1.89733
G1 X85.242 Y108.794 E1.93190
G1 X85.595 Y108.655 E1.96640
G1 X85.962 Y108.560 E2.00089
G1 X86.340 Y108.512 E2.03553
G1 X86.664 Y108.511 E2.06503
G1 X87.097 Y108.560 E2.10461 F540.000
G1 X87.464 Y108.654 E2.13903
G1 X87.817 Y108.795 E2.17362
G1 X88.307 Y109.084 E2.22532
G1 X88.733 Y109.460 E2.27697
G1 X88.975 Y109.753 E2.31157
G1 X89.179 Y110.074 E2.34613
G1 X89.405 Y110.595 E2.39776
G1 X89.499 Y110.962 E2.43227
G1 X89.547 Y111.340 E2.46689
G1 X89.529 Y111.909 E2.51867
G1 X89.458 Y112.281 E2.55309
G1 X89.340 Y112.643 E2.58769
G1 X89.082 Y113.150 E2.63945
G1 X88.859 Y113.456 E2.67385
G1 X88.495 Y113.825 E2.72100
G1 X88.057 Y113.378 F7800.000
G1 X87.815 Y113.554 E2.74829 F540.000
G1 X87.551 Y113.699 E2.77570
G1 X87.271 Y113.810 E2.80308
G1 X86.980 Y113.885 E2.83039
G1 X86.496 Y113.926 E2.87457
G1 X86.229 Y113.909 E2.89890
G1 X85.934 Y113.852 E2.92619
G1 X85.647 Y113.759 E2.95361
G1 X85.375 Y113.631 E2.98097
G1 X85.120 Y113.469 E3.00838
G1 X84.888 Y113.277 E3.03580
G1 X84.570 Y112.911 E3.07990
G1 X84.429 Y112.685 E3.10412
G1 X84.300 Y112.413 E3.13150
G1 X84.207 Y112.126 E3.15890
G1 X84.151 Y111.830 E3.18629
G1 X84.132 Y111.530 E3.21368
G1 X84.151 Y111.229 E3.24107
G1 X84.249 Y110.789 E3.28208
G1 X84.360 Y110.509 E3.30949
G1 X84.505 Y110.245 E3.33685
G1 X84.682 Y110.001 E3.36427
G1 X84.888 Y109.782 E3.39164
G1 X85.120 Y109.590 E3.41898
G1 X85.374 Y109.428 E3.44638
G1 X85.647 Y109.300 E3.47378
G1 X85.934 Y109.207 E3.50121
G1 X86.229 Y109.151 E3.52849
G1 X86.495 Y109.133 E3.55281
G1 X86.830 Y109.151 E3.58328 F540.000
G1 X87.126 Y109.207 E3.61069
G1 X87.413 Y109.300 E3.63809
G1 X87.814 Y109.505 E3.67908
G1 X88.058 Y109.682 E3.70647
G1 X88.378 Y110.002 E3.74757
G1 X88.631 Y110.375 E3.78857
G1 X88.759 Y110.647 E3.81592
G1 X88.885 Y111.080 E3.85692
G1 X88.923 Y111.379 E3.88436
G1 X88.909 Y111.831 E3.92542
G1 X88.852 Y112.126 E3.95275
G1 X88.759 Y112.413 E3.98017
G1 X88.554 Y112.815 E4.02122
G1 X88.377 Y113.058 E4.04854
G1 X88.097 Y113.343 E4.08492
G1 X87.659 Y112.896 F7800.000
G1 X87.480 Y113.026 E4.10513 F378.000
G1 X87.284 Y113.134 E4.12538
G1 X87.077 Y113.216 E4.14562
G1 X86.862 Y113.271 E4.16584
G1 X86.641 Y113.299 E4.18612
G1 X86.418 Y113.299 E4.20634
G1 X86.197 Y113.271 E4.22660
G1 X85.982 Y113.216 E4.24684
G1 X85.676 Y113.083 E4.27716
G1 X85.488 Y112.964 E4.29742
G1 X85.316 Y112.822 E4.31767
G1 X85.164 Y112.660 E4.33789
G1 X85.033 Y112.479 E4.35814
G1 X84.926 Y112.285 E4.37837
G1 X84.844 Y112.077 E4.39863
G1 X84.769 Y111.737 E4.43031
G1 X84.757 Y111.530 E4.44920
G1 X84.771 Y111.307 E4.46944
G1 X84.813 Y111.089 E4.48967
G1 X84.881 Y110.877 E4.50993
G1 X84.976 Y110.675 E4.53018
G1 X85.096 Y110.488 E4.55042
G1 X85.237 Y110.316 E4.57064
G1 X85.400 Y110.164 E4.59090
G1 X85.580 Y110.033 E4.61111
G1 X85.775 Y109.926 E4.63136
G1 X85.982 Y109.844 E4.65160
G1 X86.197 Y109.788 E4.67184
G1 X86.418 Y109.760 E4.69211
G1 X86.626 Y109.760 E4.71097
G1 X86.862 Y109.788 E4.73260 F378.000
G1 X87.077 Y109.844 E4.75282
G1 X87.285 Y109.926 E4.77308
G1 X87.572 Y110.096 E4.80341
G1 X87.822 Y110.316 E4.83373
G1 X87.964 Y110.488 E4.85398
G1 X88.083 Y110.676 E4.87424
G1 X88.216 Y110.982 E4.90455
G1 X88.271 Y111.197 E4.92479
G1 X88.299 Y111.418 E4.94506
G1 X88.288 Y111.752 E4.97540
G1 X88.247 Y111.970 E4.99563
G1 X88.178 Y112.182 E5.01588
G1 X88.026 Y112.480 E5.04622
G1 X87.896 Y112.660 E5.06644
G1 X87.699 Y112.861 E5.09206
G1 F1800.000 E4.09206
G92 E0
G1 X86.612 Y109.522 F7800.000
G1 X110.453 Y111.719 F7800.000
G1 E1.00000 F1800.000
G1 X110.471 Y111.151 E1.05173 F540.000
G1 X110.595 Y110.596 E1.10342
G1 X110.821 Y110.073 E1.15520
G1 X111.025 Y109.753 E1.18974
G1 X111.267 Y109.460 E1.22425
G1 X111.544 Y109.200 E1.25880
G1 X111.850 Y108.978 E1.29322
G1 X112.357 Y108.719 E1.34501
G1 X112.903 Y108.560 E1.39668
G1 X113.281 Y108.513 E1.43129
G1 X113.605 Y108.511 E1.46081
G1 X114.038 Y108.560 E1.50037 F540.000
G1 X114.404 Y108.654 E1.53482
G1 X114.927 Y108.881 E1.58659
G1 X115.248 Y109.084 E1.62116
G1 X115.674 Y109.460 E1.67286
G1 X115.916 Y109.753 E1.70737
G1 X116.119 Y110.073 E1.74184
G1 X116.281 Y110.417 E1.77638
G1 X116.399 Y110.779 E1.81099
G1 X116.470 Y111.151 E1.84542
G1 X116.488 Y111.719 E1.89714
G1 X116.440 Y112.096 E1.93168
G1 X116.346 Y112.463 E1.96616
G1 X116.205 Y112.817 E2.00079
G1 X115.917 Y113.306 E2.05237
G1 X115.675 Y113.598 E2.08690
G1 X115.397 Y113.860 E2.12160
G1 X114.926 Y114.179 E2.17335
G1 X114.584 Y114.340 E2.20771
G1 X114.222 Y114.458 E2.24228
G1 X113.849 Y114.529 E2.27680
G1 X113.281 Y114.547 E2.32854
G1 X112.903 Y114.499 E2.36312
G1 X112.536 Y114.405 E2.39761
G1 X112.184 Y114.265 E2.43200
G1 X111.850 Y114.082 E2.46670
G1 X111.503 Y113.823 E2.50607
G1 X111.140 Y113.456 E2.55301
G1 X110.821 Y112.986 E2.60464
G1 X110.660 Y112.642 E2.63915
G1 X110.542 Y112.281 E2.67370
G1 X110.458 Y111.772 E2.72065
G1 X111.077 Y111.680 F7800.000
G1 X111.091 Y111.229 E2.76168 F540.000
G1 X111.190 Y110.789 E2.80269
G1 X111.369 Y110.374 E2.84375
G1 X111.531 Y110.120 E2.87115
G1 X111.722 Y109.888 E2.89852
G1 X112.061 Y109.590 E2.93956
G1 X112.449 Y109.360 E2.98057
G1 X112.874 Y109.207 E3.02165
G1 X113.169 Y109.151 E3.04897
G1 X113.436 Y109.133 E3.07329
G1 X113.771 Y109.151 E3.10378 F540.000
G1 X114.067 Y109.207 E3.13116
G1 X114.491 Y109.360 E3.17219
G1 X114.755 Y109.505 E3.19958
G1 X114.999 Y109.682 E3.22698
G1 X115.218 Y109.888 E3.25435
G1 X115.410 Y110.120 E3.28172
G1 X115.640 Y110.509 E3.32274
G1 X115.751 Y110.789 E3.35013
G1 X115.849 Y111.229 E3.39116
G1 X115.868 Y111.530 E3.41855
G1 X115.844 Y111.864 E3.44906
G1 X115.751 Y112.270 E3.48694
G1 X115.640 Y112.551 E3.51439
G1 X115.411 Y112.938 E3.55533
G1 X115.219 Y113.171 E3.58272
G1 X114.998 Y113.378 E3.61020
G1 X114.625 Y113.631 E3.65125
G1 X114.353 Y113.759 E3.67853
G1 X114.067 Y113.852 E3.70595
G1 X113.771 Y113.909 E3.73332
G1 X113.436 Y113.926 E3.76380
G1 X113.021 Y113.885 E3.80178
G1 X112.729 Y113.810 E3.82914
G1 X112.450 Y113.700 E3.85644
G1 X112.185 Y113.554 E3.88393
G1 X111.916 Y113.354 E3.91441
G1 X111.622 Y113.057 E3.95238
G1 X111.369 Y112.685 E3.99336
G1 X111.241 Y112.412 E4.02073
G1 X111.148 Y112.126 E4.04813
G1 X111.082 Y111.732 E4.08439
G1 X111.701 Y111.641 F7800.000
G1 X111.712 Y111.307 E4.11473 F378.000
G1 X111.784 Y110.982 E4.14505
G1 X111.917 Y110.676 E4.17540
G1 X112.036 Y110.488 E4.19565
G1 X112.178 Y110.316 E4.21589
G1 X112.428 Y110.096 E4.24623
G1 X112.616 Y109.976 E4.26645
G1 X112.818 Y109.881 E4.28670
G1 X113.138 Y109.788 E4.31703
G1 X113.359 Y109.760 E4.33729
G1 X113.567 Y109.760 E4.35616
G1 X113.803 Y109.788 E4.37778 F378.000
G1 X114.018 Y109.844 E4.39801
G1 X114.225 Y109.926 E4.41826
G1 X114.512 Y110.096 E4.44861
G1 X114.763 Y110.316 E4.47893
G1 X114.905 Y110.488 E4.49918
G1 X115.024 Y110.676 E4.51941
G1 X115.119 Y110.877 E4.53966
G1 X115.187 Y111.089 E4.55992
G1 X115.229 Y111.307 E4.58014
G1 X115.240 Y111.641 E4.61047
G1 X115.212 Y111.862 E4.63072
G1 X115.156 Y112.077 E4.65095
G1 X115.074 Y112.285 E4.67122
G1 X114.905 Y112.571 E4.70152
G1 X114.763 Y112.743 E4.72177
G1 X114.600 Y112.896 E4.74205
G1 X114.324 Y113.083 E4.77239
G1 X114.123 Y113.178 E4.79260
G1 X113.911 Y113.247 E4.81285
G1 X113.693 Y113.288 E4.83309
G1 X113.456 Y113.302 E4.85467
G1 X113.138 Y113.271 E4.88369
G1 X112.923 Y113.216 E4.90392
G1 X112.716 Y113.134 E4.92413
G1 X112.520 Y113.026 E4.94441
G1 X112.329 Y112.886 E4.96599
G1 X112.104 Y112.659 E4.99500
G1 X111.917 Y112.384 E5.02532
G1 X111.822 Y112.182 E5.04556
G1 X111.753 Y111.970 E5.06581
G1 X111.706 Y111.693 E5.09138
G1 F1800.000 E4.09138
G92 E0
G1 X113.639 Y109.533 F7800.000
G1 X116.764 Y136.995 F7800.000
G1 E1.00000 F1800.000
G1 X116.399 Y139.221 E1.20514 F540.000
G1 X116.206 Y139.758 E1.25699
G1 X115.916 Y140.247 E1.30869
G1 X115.674 Y140.540 E1.34319
G1 X115.398 Y140.799 E1.37770
G1 X115.090 Y141.023 E1.41223
G1 X114.758 Y141.206 E1.44678
G1 X114.405 Y141.346 E1.48129
G1 X114.038 Y141.440 E1.51575
G1 X113.471 Y141.493 E1.56749
G1 X113.091 Y141.470 E1.60214
G1 X112.719 Y141.399 E1.63659
G1 X112.357 Y141.281 E1.67114
G1 X112.013 Y141.119 E1.70571
G1 X111.544 Y140.800 E1.75734
G1 X111.267 Y140.540 E1.79190
G1 X111.025 Y140.247 E1.82641
G1 X110.821 Y139.927 E1.86095
G1 X110.595 Y139.404 E1.91272
G1 X110.501 Y139.037 E1.94718
G1 X110.453 Y138.661 E1.98169
G1 X110.453 Y138.280 E2.01625
G1 X110.501 Y137.904 E2.05076
G1 X110.595 Y137.536 E2.08526
G1 X110.821 Y137.014 E2.13701
G1 X111.024 Y136.694 E2.17149
G1 X111.267 Y136.401 E2.20611
G1 X111.544 Y136.140 E2.24069
G1 X111.850 Y135.918 E2.27504
G1 X112.184 Y135.735 E2.30974
G1 X112.536 Y135.595 E2.34411
G1 X112.903 Y135.501 E2.37860
G1 X113.281 Y135.453 E2.41319
G1 X113.659 Y135.453 E2.44762
G1 X114.038 Y135.501 E2.48230
G1 X114.404 Y135.595 E2.51673
G1 X114.757 Y135.735 E2.55120
G1 X115.091 Y135.918 E2.58588
G1 X115.397 Y136.141 E2.62023
G1 X115.675 Y136.402 E2.65491
G1 X115.917 Y136.694 E2.68944
G1 X116.108 Y136.995 E2.72187
G1 X116.711 Y136.995 E2.77671
G1 X116.032 Y137.620 F7800.000
G1 X115.826 Y138.920 E2.89637 F540.000
G1 X115.751 Y139.211 E2.92376
G1 X115.572 Y139.626 E2.96482
G1 X115.318 Y139.999 E3.00582
G1 X115.112 Y140.219 E3.03325
G1 X114.880 Y140.410 E3.06056
G1 X114.491 Y140.640 E3.10164
G1 X114.211 Y140.751 E3.12902
G1 X113.920 Y140.826 E3.15636
G1 X113.471 Y140.868 E3.19740
G1 X113.169 Y140.849 E3.22486
G1 X112.874 Y140.793 E3.25220
G1 X112.588 Y140.700 E3.27960
G1 X112.315 Y140.571 E3.30701
G1 X111.942 Y140.318 E3.34799
G1 X111.722 Y140.112 E3.37539
G1 X111.531 Y139.880 E3.40276
G1 X111.369 Y139.626 E3.43016
G1 X111.190 Y139.211 E3.47121
G1 X111.115 Y138.920 E3.49856
G1 X111.077 Y138.621 E3.52593
G1 X111.077 Y138.320 E3.55334
G1 X111.115 Y138.021 E3.58071
G1 X111.190 Y137.730 E3.60808
G1 X111.369 Y137.315 E3.64912
G1 X111.530 Y137.061 E3.67648
G1 X111.723 Y136.829 E3.70392
G1 X111.942 Y136.622 E3.73134
G1 X112.185 Y136.446 E3.75862
G1 X112.556 Y136.255 E3.79655
G1 X112.874 Y136.148 E3.82709
G1 X113.169 Y136.091 E3.85441
G1 X113.471 Y136.073 E3.88187
G1 X113.771 Y136.091 E3.90923
G1 X114.067 Y136.148 E3.93659
G1 X114.353 Y136.241 E3.96401
G1 X114.625 Y136.369 E3.99129
G1 X114.880 Y136.531 E4.01875
G1 X115.112 Y136.722 E4.04612
G1 X115.411 Y137.062 E4.08722
G1 X115.571 Y137.315 E4.11452
G1 X115.714 Y137.620 E4.14512
G1 X115.980 Y137.620 E4.16928
G1 X115.156 Y137.923 F7800.000
G1 X115.236 Y138.245 E4.19944 F378.000
G1 X115.300 Y138.245 E4.20532
G1 X115.212 Y138.803 E4.25667
G1 X115.156 Y139.018 E4.27692
G1 X115.074 Y139.225 E4.29717
G1 X114.905 Y139.512 E4.32749
G1 X114.763 Y139.684 E4.34774
G1 X114.512 Y139.904 E4.37806
G1 X114.225 Y140.074 E4.40841
G1 X114.018 Y140.156 E4.42865
G1 X113.693 Y140.229 E4.45899
G1 X113.471 Y140.243 E4.47922
G1 X113.248 Y140.229 E4.49949
G1 X112.923 Y140.156 E4.52982
G1 X112.716 Y140.074 E4.55007
G1 X112.428 Y139.904 E4.58040
G1 X112.178 Y139.684 E4.61074
G1 X112.036 Y139.512 E4.63098
G1 X111.917 Y139.324 E4.65123
G1 X111.784 Y139.018 E4.68157
G1 X111.712 Y138.693 E4.71189
G1 X111.698 Y138.470 E4.73214
G1 X111.712 Y138.248 E4.75239
G1 X111.784 Y137.923 E4.78272
G1 X111.917 Y137.616 E4.81306
G1 X112.036 Y137.429 E4.83329
